src/Seller Sites/Run Fest Run/Web/images/Section-Line-Blue.svg

<svg width="1440" height="87" viewBox="0 0 1440 87" fill="none" xmlns="http://www.w3.org/2000/svg">
<mask id="mask0" mask-type="alpha" maskUnits="userSpaceOnUse" x="0" y="0" width="1440" height="87">
<rect width="1440" height="86.7382" fill="#C4C4C4"/>
</mask>
<g mask="url(#mask0)">
<path d="M2163.71 176.356C2338.33 223.341 2476.55 280.557 2569.21 344.216C2670.26 410.593 2724.55 482.165 2728.87 554.721L2728.87 561.134C2733.96 677.804 2591.9 790.988 2329.44 879.378C2225.93 917.233 2101.17 949.753 1960.41 975.572C1891.06 988.135 1816.9 998.305 1739.43 1005.87C1478.86 1029.13 1207.02 1039.96 934.503 1037.94C592.567 1040.03 251.821 1025.56 -73.7215 995.132C-135.044 989.039 -174.268 984.871 -190.289 982.626C-351.497 961.776 -494.441 930.65 -608.495 891.562C-784.53 835.157 -923.965 769.979 -1020.07 699.173C-1112.21 620.56 -1155.97 537.854 -1149.35 454.839L-1149.35 453.076C-1151.52 389.861 -1096.26 327.596 -989.135 272.551C-890.999 220.685 -759.761 174.71 -602.418 137.077C-420.418 96.7743 -219.744 64.1208 -6.32227 40.0809C216.292 13.7448 454.339 0.135234 694.739 -8.89204e-05L700.816 -8.86547e-05C976.178 0.569091 1247.82 18.5126 1496.9 52.5862C1739.66 83.7109 1964.54 125.453 2163.71 176.356Z" fill="#153863"/>
</g>
</svg>

<?xml version="1.0" encoding="utf-8"?>
<!-- Generator: Adobe Illustrator 23.1.1, SVG Export Plug-In . SVG Version: 6.00 Build 0)  -->
<svg version="1.1" id="Layer_1" xmlns="http://www.w3.org/2000/svg" xmlns:xlink="http://www.w3.org/1999/xlink" x="0px" y="0px"
	 viewBox="0 0 1440 87" style="enable-background:new 0 0 1440 87;" xml:space="preserve">
<style type="text/css">
	.st0{fill:#C4C4C4;filter:url(#Adobe_OpacityMaskFilter);}
	.st1{mask:url(#mask0_1_);}
	.st2{fill:#281840;}
</style>
<defs>
	<filter id="Adobe_OpacityMaskFilter" filterUnits="userSpaceOnUse" x="-1150" y="0" width="3879" height="1038.2">
		<feColorMatrix  type="matrix" values="1 0 0 0 0  0 1 0 0 0  0 0 1 0 0  0 0 0 1 0"/>
	</filter>
</defs>
<mask maskUnits="userSpaceOnUse" x="-1150" y="0" width="3879" height="1038.2" id="mask0_1_">
	<rect class="st0" width="1440" height="86.7"/>
</mask>
<g class="st1">
	<path class="st2" d="M2163.7,176.4c174.6,47,312.8,104.2,405.5,167.9c101.1,66.4,155.3,137.9,159.7,210.5v6.4
		c5.1,116.7-137,229.9-399.4,318.2c-103.5,37.9-228.3,70.4-369,96.2c-69.3,12.6-143.5,22.7-221,30.3
		c-260.6,23.3-532.4,34.1-804.9,32.1c-341.9,2.1-682.7-12.4-1008.2-42.8c-61.3-6.1-100.5-10.3-116.6-12.5
		c-161.2-20.8-304.2-52-418.2-91.1c-176-56.4-315.5-121.6-411.6-192.4c-92.1-78.6-135.9-161.3-129.3-244.3v-1.8
		c-2.2-63.2,53.1-125.5,160.2-180.5c98.1-51.9,229.4-97.8,386.7-135.5c182-40.3,382.7-73,596.1-97C216.3,13.7,454.3,0.1,694.7,0
		l6.1,0c275.4,0.6,547,18.5,796.1,52.6C1739.7,83.7,1964.5,125.5,2163.7,176.4z"/>
</g>
</svg>
